X:121
T: Calloch a Theusa
T: Cailleach a T\'uirne (Hag at the Spinning Wheel)
N: O'Farrell's Pocket Companion v.2 (Sky ed. p.69)
N: "Irish"
M: 6/8
R: jig
L: 1/8
Q: 320
K: G
G|: A2B cBc|EFE c2A|B2G AFD|GAG BAG|
A2B cBc|EFE c2A|BdB cAF|G3 BAG :|
P:2
FGA AFd|AFd AFd| FGA AEd|GAF BAG|
FGA AFd|AFd ABc|BdB cAF|G3 BAG :|
P:3
FGA AFD|DED AFD|FGA AFD|GAG BAG|
FGA AFD|DED ABc|BdB cBA|G3 BAG :|
